app/images/src/send-form.svg

<svg xmlns="http://www.w3.org/2000/svg" width="23.598" height="19.965"><path d="M23.233.547A1.532 1.532 0 0022.018 0a2.385 2.385 0 00-.849.169L1.194 7.794C.134 8.2-.009 8.806.001 9.131s.186.924 1.267 1.268l.019.006 4.144 1.186L7.672 18a1.934 1.934 0 001.79 1.416 2.118 2.118 0 001.432-.61l2.563-2.36 3.717 2.993.035.028.01.008a2.146 2.146 0 001.3.49 1.831 1.831 0 001.746-1.623l3.279-16.161a1.93 1.93 0 00-.311-1.634zM6.817 11.366l7.994-4.084-4.978 5.289a.69.69 0 00-.168.308l-.964 3.888zm3.14 6.422c-.033.03-.066.058-.1.083l.89-3.606 1.62 1.3zM22.189 1.907l-3.273 16.16c-.032.155-.132.515-.391.515a.806.806 0 01-.453-.2L13.86 14.99l-2.506-2.018 7.2-7.648a.691.691 0 00-.818-1.089l-11.843 6.05-4.2-1.2 19.969-7.624a1.014 1.014 0 01.355-.078c.042 0 .118.005.145.039a.659.659 0 01.027.485zm0 0" fill="#3b7fff"/></svg>

<svg xmlns="http://www.w3.org/2000/svg" width="23.598" height="19.965" viewBox="0 0 23.598 19.965"><defs><style>.a{fill:#3b7fff;}</style></defs><path class="a" d="M23.232.547A1.532,1.532,0,0,0,22.017,0a2.385,2.385,0,0,0-.849.169L1.193,7.794C.133,8.2-.01,8.806,0,9.131s.186.924,1.267,1.268l.019.006L5.43,11.591,7.671,18a1.934,1.934,0,0,0,1.79,1.416,2.118,2.118,0,0,0,1.432-.61l2.563-2.36,3.717,2.993h0l.035.028.01.008a2.146,2.146,0,0,0,1.3.49h0a1.831,1.831,0,0,0,1.746-1.623L23.543,2.181A1.93,1.93,0,0,0,23.232.547ZM6.816,11.366,14.81,7.282,9.832,12.571a.69.69,0,0,0-.168.308L8.7,16.767Zm3.14,6.422c-.033.03-.066.058-.1.083l.89-3.606,1.62,1.3ZM22.188,1.907,18.915,18.067c-.032.155-.132.515-.391.515a.806.806,0,0,1-.453-.2l-4.212-3.392h0l-2.506-2.018,7.2-7.648a.691.691,0,0,0-.818-1.089L5.892,10.285l-4.2-1.2L21.661,1.461a1.014,1.014,0,0,1,.355-.078c.042,0,.118.005.145.039A.659.659,0,0,1,22.188,1.907Zm0,0" transform="translate(0.001)"/></svg>
